X: 4213
T: Bluebells Of Scotland, The
R: polka
M: 2/4
K: Gmajor
|:d|g2 fe|d2 ef/g/|BB cA|G3:|
d|BG Bd|gg ef/g/|fd e^c|d2 ef|
g2 fe|d2 ef/g/|BB cA|G3||

